common/svg/twitch-icon.svg

<svg fill="none" height="20" viewBox="0 0 20 20" width="20" xmlns="http://www.w3.org/2000/svg"><g fill="#000"><path d="m4.82143 0-3.57143 3.57143v12.85717h4.28571v3.5714l3.57143-3.5714h2.85716l6.4286-6.4286v-10zm12.14287 9.28571-2.8572 2.85719h-2.8571l-2.5 2.5v-2.5h-3.21429v-10.71433h11.42859z"/><path d="m14.8215 3.92857h-1.4286v4.28572h1.4286z"/><path d="m10.8928 3.92857h-1.42856v4.28572h1.42856z"/></g></svg>

<svg width="20" height="20" viewBox="0 0 20 20" fill="none" xmlns="http://www.w3.org/2000/svg">
<path d="M4.82143 0L1.25 3.57143V16.4286H5.53571V20L9.10714 16.4286H11.9643L18.3929 10V0H4.82143ZM16.9643 9.28571L14.1071 12.1429H11.25L8.75 14.6429V12.1429H5.53571V1.42857H16.9643V9.28571Z" fill="black"/>
<path d="M14.8215 3.92857H13.3929V8.21429H14.8215V3.92857Z" fill="black"/>
<path d="M10.8928 3.92857H9.46424V8.21429H10.8928V3.92857Z" fill="black"/>
</svg>
